!!!OTL: SISCH NOCH NIT LANG
!!!ARE: Europa, Mitteleuropa, Deutschland; France, Elsass
!!!SCT: E1011
!!!YEM: Copyright 1995, estate of Helmut Schaffrath.
**kern
*ICvox
*Ivox
*M2/4
*k[b-e-]
*B-:
{8f
=1
8f
8b-
8b-
8b-
=2
8a
8cc
4b-
=3
8a
8cc
8b-}
{8dd
=4
8cc
8b-
8a
8g
=5
8f
8a
8cc}
{8cc
=6
8cc
8cc
8ff
8ff
=7
4f
8r}
{16cc
16dd
=8
8ee-
8ee-
8ee-
8cc
=9
8dd
16dd
16dd
8dd}
{8b-
=10
8cc
8cc
8cc
8a
=11
8b-
8dd
8ff}
{16cc
16dd
=12
8ee-
8ee-
8ee-
8cc
=13
8dd
16dd
16dd
8dd}
{8b-
=14
8cc
8cc
8a
8a
=15
4b-
8r}
==
!!!AGN: Tanz - Lied
!!!ONB: ESAC (Essen Associative Code) Database: ERK3
!!!AMT: simple duple
!!!AIN: vox
!!!EED: Helmut Schaffrath
!!!EEV: 1.0
*-
